!!!!SEGMENT: T503_Mau-w97p4-5h10m1-h11m2.krn
!!!COM: Martinů, Bohuslav (Jan)
!!!OTL: I: Allegro
!!!AGN: Instrumental
!!!AGN-sub: Chamber
!!!CNT: Czech
!!!ODT: 1950
!!!OPR: Duo No. 2 for Violin and Alto
!!!filename: T503_Mau-w97p4-5h10m1-h11m2.krn
**kern	**dynam	**kern	**dynam
*grp:A	*	*grp:B	*
*part2	*	*part1	*
*staff2	*	*staff1	*
*ICstr	*	*ICstr	*
*Iviola	*	*Ivioln	*
*I"Viola	*	*I"Violin I	*
*I'Vla.	*	*I'Vln. I	*
*clefG2	*	*clefG2	*
*k[]	*	*k[]	*
*C:	*	*C:	*
*M6/8	*	*M6/8	*
!!LO:REH:t=10
=101	=101	=101	=101
!	!	!LO:TX:t=[[quarter-dot]=53]	!
!	!	!	!LO:DY:ed=brack
4%3r	.	4a-X~	f
.	.	([8f	.
.	.	8fL]	.
.	.	8e-X)	.
.	.	[8a-J	> ]
=102	=102	=102	=102
4cc~	p	4a-]	p
(8c	.	([8f	.
4.cc)	.	8fL]	.
.	.	8en)	.
.	.	[8a-XJ	.
=103	=103	=103	=103
4c	.	8a-]	.
.	.	(4f	.
(8ee-X	.	.	.
8ee-L)	.	8e-X)	.
8a-X	.	4a-X~	.
[8ffJ	.	.	.
=104	=104	=104	=104
8ff]	.	(4f	.
4cc~	.	.	.
.	.	8e-X)	.
(>8c	<	/4b-X	.
4cc)	.	.	.
.	.	[8a-X	<
=105	=105	=105	=105
(>8f	.	8a-L]	.
4a-X	[	(8cc	.
.	.	[8aa-XJ	[
4cc)	.	8aa-])	.
.	.	4ff~	.
(8c	.	.	.
!!linebreak:original
=106	=106	=106	=106
4e)	.	(8ee	.
.	.	4cc)	.
[8cc	.	.	.
8cc]	.	4c~	.
4c	.	.	.
.	.	([8B-X	.
=107	=107	=107	=107
(4.dd-X	.	8B-L]	.
.	.	8A-X)	.
.	.	[8c~J	.
4b-X)	>	8c]	.
.	.	(4B-X	>
(<8g	]	.	.
=108	=108	=108	=108
4b-X)	.	8A-X)	.
.	.	4d-X~	]
[8g	.	.	.
8gL]	.	4c~	.
(8e	.	.	.
[8gJ	.	(8Bn	.
=109	=109	=109	=109
*grp:A	*	*grp:A	*
4g])	p	4en)	p
(4G	.	([8e-X	.
.	.	8e-]	.
4g)	.	4en)	.
!!linebreak:original
*clefC3	*	*	*
=110	=110	=110	=110
(>8G	.	(8e-X	.
4g)	.	4en)	.
4Gv	.	(4e-X	.
[8gu	.	[8en	.
!!LO:REH:t=11
=111	=111	=111	=111
8gL]	.	8eL])	.
(8g#Xv	<	(8f	<
[8aJ	.	[8f#XJ	.
8a])	.	8f#])	.
(>4A	[	(4fn	[
=112	=112	=112	=112
*grp:A	*	*grp:B	*
4a)	f	4f#X)	f
(>8A	.	(8fn	.
8a)	.	4f#X)	.
4b-X~	.	.	.
.	.	([8g	.
=113	=113	=113	=113
(8B-XL	<	8gL]	<
8Bn)	.	8a-X	.
([8bnJ	.	8gJ)	.
8bL]	.	(8a-L	.
8ccJ)	[	8anJ)	[
8r	.	8r	.
*clefG2	*	*	*
=	=	=	=
*-	*-	*-	*-
!!!system-decoration: [(s1,s2)]
!!!RDF**kern: > = above
!!!RDF**kern: < = below
!!!EED: Daniel Wright
!!!EEV: 2021/08/06
!!!EED2: Rafael Laurindo
!!!EEV2: 2022/02/06
!!!EED3: Bryan Bell
!!!Suter_Work_ID: Mau-97
!!!Suter_Example_Number: 503
!!!Suter_Example_ID: Mau-97/4-5/[10]1-[11]2
!!!Premiere_Location: New York,United States
!!!Other_Tsigs: none
!!!Full_Unit_Duration: 5:25
!!!First_Publication_Year: 1964
!!!First_Public_Performance_Year: 1951
!!!Example_Total_Measures: 12
!!!Example_Timestamp_Duration: 27
!!!Example_Start_Tsig_Type: compound duple
!!!Example_Start_Tsig_Mean_Beat_Rate: 53
!!!Example_Start_Tsig_Beat_Rate: 53
!!!Example_Start_Tsig_Beat: dotted-quarter
!!!Example_Start_Tsig: 6/8
!!!Example_Start_Timestamp: 2:10
!!!Example_Start_Tempo_Expression: [Allegro]
!!!Example_Start_Notated_Beat_Rate: {53}
!!!Example_Start_Notated_Beat: {dotted-quarter}
!!!Example_Start_Measure: 101
!!!Example_Metadata_Validated: Y
!!!Example_End_Timestamp: 2:37
!!!Example_End_Measure: 112
!!!Example_Dataset: T
!!!Editorial_Comments: No notated tempo. Example Start Notated Beat and Example Start Notated Beat Rate {dotted-quarter=53} calculated from recording (https://ubc-naxosmusiclibrary-com.ezproxy.library.ubc.ca/catalogue/item.asp?cid=BIS-2030); tempo for audio synthesis was calculated {dotted-quarter=60} using a Digital Audio Workstation (DAW). Example Start Tempo Expression [Allegro] based on most recent notated tempo expression (SWFU, m. 1).
!!!Death_Place: Liestal,Switzerland
!!!Death_Date: 28-Aug-1959
!!!Changing_Tsig: no
!!!Birth_Place: Polička,Bohemia
!!!Birth_Date: 8-Dec-1890
!!!Audio_Example_Quarter_Note_Tempo:
!!!Audio_Example_Duration:
!!!EEV3: 2023/06/01
